public/images/s23/6.svg

<svg width="510" height="213" viewBox="0 0 510 213" fill="none" xmlns="http://www.w3.org/2000/svg">
<path d="M28.2736 24.7839L22.5611 7.84001H16.8486V64.3843H22.5611L28.2736 47.4404H45.1207L28.2736 70H16.8486L0.0014951 47.4404V24.7839L16.8486 2.2243H28.2736L45.1207 24.7839H28.2736ZM67.2658 64.3843L78.6909 47.4404V7.84001L67.2658 24.7839V64.3843ZM78.6909 0.287856L95.538 24.7839V47.4404L78.6909 71.9364H67.2658L50.4187 47.4404V24.7839L67.2658 0.287856H78.6909ZM100.698 2.2243H117.545L123.258 27.8822H128.97V2.2243L145.818 27.8822V70H128.97L123.258 38.92H117.545V70L100.698 47.4404V2.2243ZM185.826 24.7839L180.113 7.84001H174.401V64.3843H180.113L185.826 47.4404H202.673L185.826 70H174.401L157.553 47.4404V24.7839L174.401 2.2243H185.826L202.673 24.7839H185.826ZM234.306 24.7839L228.594 7.84001H222.881V27.8822H234.306V43.3738H222.881V64.3843H228.594L234.306 47.4404H251.154L234.306 70H222.881L206.034 47.4404V24.7839L222.881 2.2243H234.306L251.154 24.7839H234.306ZM275.759 43.3738V70L258.912 47.4404V24.7839L275.759 2.2243H286.119L304.031 24.7839V30.3996L286.119 43.3738H275.759ZM290.67 35.628V24.7839L281.472 8.71141H275.759V24.7839L281.472 35.628H290.67ZM325.813 2.2243H337.239L354.086 24.7839H336.173V64.3843L331.526 70L325.813 64.3843V24.7839H308.966L325.813 2.2243ZM381.521 2.2243L379.101 24.7839V47.4404L385.491 64.3843H391.881V24.7839L389.461 2.2243H391.881L407.566 24.7839L407.373 47.4404L390.526 70H379.101L362.253 47.4404V24.7839L379.101 2.2243H381.521ZM414.016 47.4404V24.7839L430.864 1.3529H442.289L459.136 24.7839V47.4404L442.289 71.2587V35.628H430.864V71.2587L414.016 47.4404ZM442.289 24.7839L436.576 7.84001H430.864V24.7839H442.289ZM492.6 2.2243L481.175 24.7839V64.3843H486.887L492.6 55.9607H509.447L492.6 70H481.175L464.328 64.3843V24.7839L481.175 2.2243H492.6ZM46.9604 95.7839L30.1133 106.628L46.9604 118.44L30.1133 141H18.6882L1.84112 118.44V95.7839L18.6882 73.2243H30.1133L46.9604 95.7839ZM30.1133 95.7839L24.4007 78.84H18.6882V98.8822H30.1133V95.7839ZM18.6882 135.384H24.4007L30.1133 118.44H18.6882V135.384ZM66.2454 114.374V141L49.3983 118.44V95.7839L66.2454 73.2243H76.6054L94.5176 95.7839V101.4L76.6054 114.374L94.5176 141H81.1561L66.2454 114.374ZM81.1561 106.628V95.7839L71.958 79.7114H66.2454V95.7839L71.958 106.628H81.1561ZM97.7778 118.44V95.7839L114.625 72.3529H126.05L142.897 95.7839V118.44L126.05 142.259V106.628H114.625V142.259L97.7778 118.44ZM126.05 95.7839L120.337 78.84H114.625V95.7839H126.05ZM150.316 73.2243H167.163L172.876 98.8822H178.588V73.2243L195.435 98.8822V141H178.588L172.876 109.92H167.163V141L150.316 118.44V73.2243ZM225.858 118.44L231.57 135.384H237.283V98.8822L231.57 78.84H225.858V118.44ZM237.283 141H209.011V73.2243H237.283L254.13 98.8822V118.44L237.283 141ZM1.84112 166.784L18.8819 144.224H30.3069L46.9604 166.784L18.8819 189.44V206.384H24.5944L39.7955 189.44H46.9604V212H1.84112V189.44L30.3069 166.784V149.84H24.5944L18.8819 166.784H1.84112ZM56.281 166.784L73.3218 144.224H84.7468L101.4 166.784L89.2007 172.4H101.594L84.7468 212H73.3218L56.281 189.44H67.222L79.0343 206.384H84.7468L84.9405 179.661H73.5154L84.7468 166.784V149.84H79.0343L73.3218 166.784H56.281ZM125.922 159.619V172.4H137.347V149.84H131.635L125.922 159.619ZM125.922 189.44L131.635 206.384H137.347V183.825H125.922L109.269 176.563V166.784L125.922 144.224H137.347L154.388 166.784V189.44L137.347 212H125.922L109.269 189.44H125.922ZM204.985 212H188.332V185.374H176.907L159.866 179.661V166.784L182.619 144.224H204.985V212ZM182.619 149.84L176.907 177.628H188.332V149.84H182.619ZM227.57 144.224H238.996L255.649 166.784V172.4L242.287 178.209L255.649 184.018V189.634L238.996 212.194H227.57L210.53 189.634V184.018L224.182 178.209L210.53 172.4V166.784L227.57 144.224ZM233.283 149.84L227.57 172.4H238.996V149.84H233.283ZM233.283 206.384L238.996 185.374H227.57V206.384H233.283ZM258.394 189.44V166.784L275.048 144.224H286.473L303.513 166.784V189.44L286.473 212H275.048L258.394 189.44ZM275.435 189.44L280.76 206.384H286.473V166.784L281.147 149.84H275.435V189.44ZM354.216 179.661V189.44L337.563 212H326.138L309.097 189.44H326.138L331.85 206.384H337.563V179.661L314.422 166.784L320.038 144.224H354.216V163.589H347.052L331.85 149.84H326.138V166.784L354.216 179.661ZM408.656 212H392.003V185.374H380.578L363.537 179.661V166.784L386.29 144.224H408.656V212ZM386.29 149.84L380.578 177.628H392.003V149.84H386.29ZM431.242 144.224H442.667L459.32 166.784V172.4L445.959 178.209L459.32 184.018V189.634L442.667 212.194H431.242L414.201 189.634V184.018L427.853 178.209L414.201 172.4V166.784L431.242 144.224ZM436.954 149.84L431.242 172.4H442.667V149.84H436.954ZM436.954 206.384L442.667 185.374H431.242V206.384H436.954ZM462.065 189.44V166.784L478.719 144.224H490.144L507.185 166.784V189.44L490.144 212H478.719L462.065 189.44ZM479.106 189.44L484.431 206.384H490.144V166.784L484.819 149.84H479.106V189.44Z" fill="white"/>
</svg>

<svg xmlns="http://www.w3.org/2000/svg" width="510" height="213" fill="none"><path fill="#fff" d="M28.274 24.784 22.56 7.84H16.85v56.544h5.712l5.713-16.944H45.12L28.274 70H16.849L0 47.44V24.784L16.85 2.224h11.425l16.847 22.56zm38.992 39.6L78.69 47.44V7.84L67.266 24.784zM78.69.288l16.847 24.496V47.44L78.691 71.936H67.266L50.419 47.44V24.784L67.266.288zm22.007 1.936h16.847l5.713 25.658h5.712V2.224l16.848 25.658V70H128.97l-5.712-31.08h-5.713V70l-16.847-22.56zm85.128 22.56L180.113 7.84h-5.712v56.544h5.712l5.713-16.944h16.847L185.826 70h-11.425l-16.848-22.56V24.784l16.848-22.56h11.425l16.847 22.56zm48.48 0L228.594 7.84h-5.713v20.042h11.425v15.492h-11.425v21.01h5.713l5.712-16.944h16.848L234.306 70h-11.425l-16.847-22.56V24.784l16.847-22.56h11.425l16.848 22.56zm41.453 18.59V70l-16.847-22.56V24.784l16.847-22.56h10.36l17.912 22.56V30.4l-17.912 12.974zm14.911-7.746V24.784L281.472 8.71h-5.713v16.073l5.713 10.844zm35.143-33.404h11.426l16.847 22.56h-17.913v39.6L331.526 70l-5.713-5.616v-39.6h-16.847zm55.708 0-2.42 22.56V47.44l6.39 16.944h6.39v-39.6l-2.42-22.56h2.42l15.685 22.56-.193 22.656L390.526 70h-11.425l-16.848-22.56V24.784l16.848-22.56zm32.495 45.216V24.784l16.848-23.431h11.425l16.847 23.43V47.44L442.289 71.26V35.628h-11.425v35.63zm28.273-22.656L436.576 7.84h-5.712v16.944zM492.6 2.224l-11.425 22.56v39.6h5.712l5.713-8.423h16.847L492.6 70h-11.425l-16.847-5.616v-39.6l16.847-22.56zM46.96 95.784l-16.847 10.844L46.96 118.44 30.113 141H18.688L1.841 118.44V95.784l16.847-22.56h11.425zm-16.847 0L24.401 78.84h-5.713v20.042h11.425zm-11.425 39.6h5.713l5.712-16.944H18.688zm47.557-21.01V141l-16.847-22.56V95.784l16.847-22.56h10.36l17.913 22.56v5.616l-17.913 12.974L94.518 141H81.156zm14.911-7.746V95.784L71.958 79.71h-5.713v16.073l5.713 10.844zm16.622 11.812V95.784l16.847-23.431h11.425l16.847 23.43v22.657l-16.847 23.819v-35.631h-11.425v35.631zm28.272-22.656-5.713-16.944h-5.712v16.944zm24.266-22.56h16.847l5.713 25.658h5.712V73.224l16.847 25.658V141h-16.847l-5.712-31.08h-5.713V141l-16.847-22.56zm75.542 45.216 5.712 16.944h5.713V98.882L231.57 78.84h-5.712zM237.283 141h-28.272V73.224h28.272l16.847 25.658v19.558zM1.841 166.784l17.04-22.56h11.426l16.653 22.56-28.078 22.656v16.944h5.712l15.201-16.944h7.165V212H1.841v-22.56l28.466-22.656V149.84h-5.713l-5.712 16.944zm54.44 0 17.04-22.56h11.426l16.653 22.56-12.2 5.616h12.394L84.747 212H73.322L56.28 189.44h10.941l11.812 16.944h5.713l.194-26.723H73.515l11.232-12.877V149.84h-5.713l-5.712 16.944zm69.641-7.165V172.4h11.425v-22.56h-5.712zm0 29.821 5.713 16.944h5.712v-22.559h-11.425l-16.653-7.262v-9.779l16.653-22.56h11.425l17.041 22.56v22.656L137.347 212h-11.425l-16.653-22.56zM204.985 212h-16.653v-26.626h-11.425l-17.041-5.713v-12.877l22.753-22.56h22.366zm-22.366-62.16-5.712 27.788h11.425V149.84zm44.951-5.616h11.426l16.653 22.56v5.616l-13.362 5.809 13.362 5.809v5.616l-16.653 22.56H227.57l-17.04-22.56v-5.616l13.652-5.809-13.652-5.809v-5.616zm5.713 5.616-5.713 22.56h11.426v-22.56zm0 56.544 5.713-21.01H227.57v21.01zm25.111-16.944v-22.656l16.654-22.56h11.425l17.04 22.56v22.656L286.473 212h-11.425zm17.041 0 5.325 16.944h5.713v-39.6l-5.326-16.944h-5.712zm78.781-9.779v9.779L337.563 212h-11.425l-17.041-22.56h17.041l5.712 16.944h5.713v-26.723l-23.141-12.877 5.616-22.56h34.178v19.365h-7.164L331.85 149.84h-5.712v16.944zM408.656 212h-16.653v-26.626h-11.425l-17.041-5.713v-12.877l22.753-22.56h22.366zm-22.366-62.16-5.712 27.788h11.425V149.84zm44.952-5.616h11.425l16.653 22.56v5.616l-13.361 5.809 13.361 5.809v5.616l-16.653 22.56h-11.425l-17.041-22.56v-5.616l13.652-5.809-13.652-5.809v-5.616zm5.712 5.616-5.712 22.56h11.425v-22.56zm0 56.544 5.713-21.01h-11.425v21.01zm25.111-16.944v-22.656l16.654-22.56h11.425l17.041 22.56v22.656L490.144 212h-11.425zm17.041 0 5.325 16.944h5.713v-39.6l-5.325-16.944h-5.713z"/></svg>
